X:1
T:Title
%%score { ( 1 4 ) | ( 2 3 ) }
L:1/8
M:6/8
K:Eb
V:1 treble nm="Grand Piano"
V:4 treble 
V:2 bass 
V:3 bass 
V:1
 z3[Q:1/4=100] [GB]2 B | [EGB][B,EG][B,EG] [B,EG][B,DF][B,EG] | [EGB]3 [Ac]2 c | %3
 [EAc][EGB][EGB] [B,GB][B,FA][A,DF] |[M:3/8] [G,E]3 | [GB]2 B | %6
[M:3/4] [EGB][B,EG] [B,EG][B,EG] [B,DF][B,EG] | [EGB]3 [Ac]2 c | %8
 [EAc][EGB] [EGB][B,GB] [B,FA][A,DF] |[M:3/8] [G,E]3 | [EGB]3 | %11
[M:3/4] [EAc][EAc] [EAc][EGB] [B,EG][EGB] | [Ge]3 [Ge]2 [Ge] | [Ge][GB] [GB][Ac] [GB][B,EG] | %14
[M:3/8] [B,DB]3 | [B,GB]3 |[M:3/4] [EGB][B,EG] [B,EG][B,EG] [B,DF][B,EG] | [EGB]3 [EAc]3 | %18
 [EAc][EGB] [EGB][B,GB] [B,FA][A,DF] |[M:3/8] [G,E]3 |] %20
V:2
 z3 z2 G | E,E,E, E,B,,E, | E,3 z2 A | A,,B,,B,, B,,B,,B,, |[M:3/8] E,3 | z z G | %6
[M:3/4] E,E, E,E, B,,E, | E,4 z A | A,,B,, B,,B,, B,,B,, |[M:3/8] E,3 | E,3 | %11
[M:3/4] A,,A,, A,,E, E,E, | [E,B,]3 [E,B,]3 | [E,B,][E,E] [E,E][E,E] [E,E]E, |[M:3/8] B,,3 | E,3 | %16
[M:3/4] G,E, E,E, B,,E, | E,3 A,,3 | A,,B,, B,,B,, B,,B,, |[M:3/8] E,3 |] %20
V:3
 z3 [E,B,]3 | x6 | z3 A,,3 | x6 |[M:3/8] x3 | [E,B,]3 |[M:3/4] x6 | z2 z A,,3 | x6 |[M:3/8] x3 | %10
 x3 |[M:3/4] x6 | x6 | x6 |[M:3/8] x3 | x3 |[M:3/4] x6 | x6 | x6 |[M:3/8] x3 |] %20
V:4
 x6 | x6 | z3 E3 | x6 |[M:3/8] x3 | x3 |[M:3/4] x6 | z2 z E3 | x6 |[M:3/8] x3 | x3 |[M:3/4] x6 | %12
 x6 | x6 |[M:3/8] x3 | x3 |[M:3/4] x6 | x6 | x6 |[M:3/8] x3 |] %20

